!!!OTL: Ritter und Magd Es spielt' ein Ritter mit seiner Madam
!!!ARE: Europa, Osteuropa, Ungarn (deutsch - ungarisch)
!!!YOR: 3, S. 64
!!    ????
!!!SCT: Q0055m
!!!YEM: Copyright 1995, estate of Helmut Schaffrath.
**kern
*ICvox
*Ivox
*M6/8
*k[]
*C:
{8G
=1
4e
8e
8e
8e
8f
=2
8.a
16g
8g
4g}
{8e
=3
4a
8g
4f
8d
=4
4.f
4e}
{8G
=5
4e
8e
4e
8f
=6
4a
8g
4g}
{8e
=7
4a
8g
4f
8d
=8
4.f
4e}
==
!!!AGN: Ballade, Betrug, Schwangerschaft, Tod, Selbstmord, Herr und Magd
!! Verselbstaendigter Vordersatz ?
!!!ONB: ESAC (Essen Associative Code) Database: BALLADE
!!!AMT: compound duple
!!!AIN: vox
!!!EED: Helmut Schaffrath
!!!EEV: 1.0
*-
